X: 30531
T: FLINN'S HORNPIPE
C: By T. D. Paine	
%R: hornpipe, reel
B: Elias Howe "The Musician's Companion" Part 3 1844 p.53 #1
S: http://imslp.org/wiki/The_Musician's_Companion_(Howe,_Elias)
S: https://archive.org/stream/firstthirdpartof03howe/#page/66/mode/1up
Z: 2015 John Chambers <jc:trillian.mit.edu>
M: 2/4
L: 1/16
K: D
% - - - - - - - - - - - - - - - - - - - - - - - - -
E2 |\
(3(DDD)DE F2ED | (3(AAA)AB A2FA | dcde fedc | BABc BGFE |\
(3(DDD)DE F2ED | (3(AAA)AB A2FA | dcde fedc | BABc d2 :|
|: A2 |\
defe dcBA | BABc (BA)(TFA) | AFdF AFdF | EDEF (ED)(B,A,) |\
(3(DDD)DE F2ED | (3(AAA)AB A2FA | dcde fedc | BABc d2 :|
% - - - - - - - - - - - - - - - - - - - - - - - - -
